X:117
T:Have at thy Coat old Woman.
T:John Malchair's Third Collection of Tunes
%%VWML:Malchair-3619-p117
F:https://www.vwml.org/record/Malchair/3619/p117
F:www.vwml.org/topics/historic-dance-and-tune-books/Malchair
Z:Eric Conrad Feb 2020
W:from Ed.of 1695
W:\u00a0
W:See an other at p.66.the best Copy.
W:again in Coll.2d.p 83. Corrupted.
M:6/4   % time signature in MS is 3, barring in 6/4
L:1/4
K:G ^F  % older style key signature with both low F and high F marked as sharp
B/ c/ | d2e d2B | cA2 e2B/ c/ | d2e d2A | BG2- G2 ||
e/ f/ | g>fe d>cB | A>BA e2B/ c/ | d2e d2A | BG2- G2 |]
W:\u00a0% Using this W: as a space between tunes
T:Bouzer Castle.
T:John Malchair's Third Collection of Tunes
F:https://www.vwml.org/record/Malchair/3619/p117
F:www.vwml.org/topics/historic-dance-and-tune-books/Malchair
% Z:Eric Conrad Feb 2020
W:1695. an other at p.134.
M:6/4   % unlike the previous tune, this one was marked 6/4.
L:1/4
K:C
C | E2G (GE)G | A2B (cA)c | E2G (GE)C | D3 G,3 |
E2G (GE)G | A2B (cA)c | (ec)e (dB)d | c3 C2 ||
C | e2f (ge)g | B2c (dB)d | E2G (GE)G | D3 G,3 |
E2G (GE)G | A2B (cA)c | (ec)e (dB)G | c3 C2 |]
W:\u00a0% Using this W: as a space between tunes
T:Sion House. 1695.
C:John Malchair's Third Collection of Tunes
F:https://www.vwml.org/record/Malchair/3619/p117
F:www.vwml.org/topics/historic-dance-and-tune-books/Malchair
% Z:Eric Conrad Feb 2020
M:6/4
L:1/4
K:F
FcA G/F/c2 | f>ed ged/c/ | fcd c/B/Ad | =Be d2 c2 ||
g>ag f/e/de | fc2 dBA | B>AB cdA | A3 GG2 |
cA2 dcf | dg2 ded/c/ | fd2 bag | g3 ff2 |]


